**kern	**kern
*part1	*part1
*staff2	*staff1
*I"Piano	*
*clefF4	*clefG2
*k[]	*k[]
=1	=1
*^	*
(4B	2.AA 2.E	(8dL 8g#X
.	.	16bJk)
.	.	16r
2A)	.	2c 2e
=	=	=
(2A	2.AA 2.E	2.r
4G#X)	.	.
=	=	=
(4A	2.AA 2.E	2.r
2G#X)	.	.
=	=	=
(4.A	2.AA 2.E	(16aLL
.	.	16ee
.	.	16dd
.	.	16ffJJ
.	.	8eeL
8cL	.	8a
8B	.	8b
8AJ)	.	8ccJ)
=	=	=
(4B	2.AA 2.E	(8dL 8g#X
.	.	16bJk)
.	.	16r
2A)	.	2c 2e
*v	*v	*
=	=
2.AA 2.E	2.r
=	=
2.AA 2.E	2.r
=	=
*-	*-
!!!system-decoration: {(s1,s2)}
